icons/svg/compare-size.svg

<svg width="24" height="24" viewBox="0 0 24 24" fill="none" xmlns="http://www.w3.org/2000/svg">
<path d="M18.75 8.75C20.1307 8.75 21.25 9.86929 21.25 11.25V17.75C21.25 19.1307 20.1307 20.25 18.75 20.25H5.25C3.86929 20.25 2.75 19.1307 2.75 17.75V11.25C2.75 9.86929 3.86929 8.75 5.25 8.75H18.75Z" stroke="currentColor" stroke-width="1.5" stroke-linecap="round" stroke-linejoin="round"/>
<path d="M16.25 16.25L16.25 18.75" stroke="currentColor" stroke-width="1.5" stroke-linecap="round" stroke-linejoin="round"/>
<path d="M16.25 10.75L16.25 13.25" stroke="currentColor" stroke-width="1.5" stroke-linecap="round" stroke-linejoin="round"/>
<path d="M8.25 3.75L10.75 3.75" stroke="currentColor" stroke-width="1.5" stroke-linecap="round" stroke-linejoin="round"/>
<path d="M13.75 3.75L14.25 3.75C15.3546 3.75 16.25 4.64543 16.25 5.75V6.25" stroke="currentColor" stroke-width="1.5" stroke-linecap="round" stroke-linejoin="round"/>
<path d="M5.25 3.75H4.75C3.64543 3.75 2.75 4.64543 2.75 5.75V6.25" stroke="currentColor" stroke-width="1.5" stroke-linecap="round" stroke-linejoin="round"/>
</svg>

<svg xmlns="http://www.w3.org/2000/svg" width="24" height="24" fill="none" viewBox="0 0 24 24"><path stroke="currentColor" stroke-linecap="round" stroke-linejoin="round" stroke-width="1.5" d="M18.75 8.75a2.5 2.5 0 0 1 2.5 2.5v6.5a2.5 2.5 0 0 1-2.5 2.5H5.25a2.5 2.5 0 0 1-2.5-2.5v-6.5a2.5 2.5 0 0 1 2.5-2.5zm-2.5 7.5v2.5m0-8v2.5m-8-9.5h2.5m3 0h.5a2 2 0 0 1 2 2v.5m-11-2.5h-.5a2 2 0 0 0-2 2v.5"/></svg>
